svg/remove-silence.svg

<?xml version="1.0" encoding="UTF-8"?>
<svg xmlns="http://www.w3.org/2000/svg" xmlns:xlink="http://www.w3.org/1999/xlink" width="32" height="32" viewBox="0 0 32 32">
<path fill-rule="nonzero" fill="rgb(0%, 0%, 0%)" fill-opacity="1" d="M 25.503906 1.273438 C 24.550781 1.273438 23.96875 2.144531 23.164062 3.351562 C 21.644531 5.617188 19.121094 9.355469 12.152344 9.578125 L 12.152344 19.214844 C 16.066406 19.320312 18.539062 20.566406 20.25 22.101562 C 19.5625 23.140625 19.199219 24.359375 19.199219 25.601562 C 19.199219 29.128906 22.074219 32 25.601562 32 C 29.132812 31.996094 31.996094 29.132812 32 25.601562 C 32 22.71875 30.082031 20.277344 27.460938 19.476562 C 27.496094 18.105469 27.515625 16.558594 27.515625 14.71875 C 27.515625 1.273438 26.253906 1.273438 25.503906 1.273438 M 4.476562 9.601562 C 2.710938 9.601562 1.28125 11.03125 1.28125 12.796875 L 1.28125 15.996094 C 1.28125 17.761719 2.710938 19.191406 4.476562 19.191406 L 10.878906 19.191406 L 10.878906 9.601562 Z M 28.78125 12.339844 C 28.789062 13.09375 28.796875 13.882812 28.796875 14.71875 C 28.796875 15.796875 28.789062 16.804688 28.777344 17.746094 C 29.917969 17.367188 30.691406 16.296875 30.6875 15.089844 C 30.6875 13.863281 29.925781 12.769531 28.78125 12.339844 M 4.246094 20.460938 C 4.96875 22.433594 5.648438 25.996094 6.144531 28.589844 C 6.246094 29.113281 6.550781 30.71875 8.601562 30.71875 L 10.738281 30.71875 C 12.4375 30.71875 12.796875 29.671875 12.796875 28.796875 C 12.796875 27.65625 12.15625 26.925781 11.414062 26.191406 C 11.238281 25.914062 10.960938 24.390625 10.890625 20.472656 L 4.476562 20.472656 C 4.398438 20.472656 4.320312 20.464844 4.246094 20.460938 M 25.601562 20.480469 C 26.960938 20.480469 28.265625 21.019531 29.226562 21.980469 C 30.183594 22.941406 30.722656 24.246094 30.71875 25.601562 C 30.722656 26.960938 30.183594 28.261719 29.222656 29.222656 C 28.261719 30.183594 26.960938 30.722656 25.601562 30.71875 C 24.246094 30.722656 22.941406 30.183594 21.980469 29.226562 C 21.019531 28.265625 20.480469 26.960938 20.480469 25.601562 C 20.476562 24.242188 21.015625 22.9375 21.976562 21.976562 C 22.9375 21.015625 24.242188 20.476562 25.601562 20.480469 M 23.359375 22.71875 C 23.191406 22.722656 23.03125 22.792969 22.914062 22.914062 C 22.789062 23.03125 22.71875 23.191406 22.71875 23.363281 C 22.71875 23.53125 22.789062 23.691406 22.914062 23.808594 L 24.703125 25.601562 L 22.914062 27.390625 C 22.792969 27.507812 22.722656 27.671875 22.722656 27.839844 C 22.722656 28.007812 22.792969 28.171875 22.914062 28.289062 C 23.035156 28.40625 23.191406 28.472656 23.359375 28.480469 C 23.488281 28.480469 23.679688 28.414062 23.808594 28.289062 L 25.601562 26.496094 L 27.390625 28.289062 C 27.519531 28.414062 27.710938 28.480469 27.839844 28.480469 C 27.96875 28.480469 28.160156 28.414062 28.289062 28.289062 C 28.414062 28.171875 28.484375 28.011719 28.480469 27.839844 C 28.480469 27.671875 28.414062 27.507812 28.289062 27.390625 L 26.496094 25.601562 L 28.289062 23.808594 C 28.410156 23.691406 28.480469 23.53125 28.480469 23.363281 C 28.480469 23.191406 28.410156 23.03125 28.289062 22.914062 C 28.171875 22.792969 28.007812 22.722656 27.839844 22.722656 C 27.671875 22.722656 27.507812 22.792969 27.390625 22.914062 L 25.601562 24.703125 L 23.808594 22.914062 C 23.691406 22.792969 23.527344 22.722656 23.359375 22.71875 M 23.359375 22.71875 "/>
</svg>

<svg role="img" viewBox="0 0 32 32" xmlns="http://www.w3.org/2000/svg"><path d="M25.504 1.273c-.953 0-1.535.872-2.34 2.079-1.52 2.265-4.043 6.003-11.012 6.226v9.637c3.914.105 6.387 1.351 8.098 2.887a6.34 6.34 0 0 0-1.05 3.5c0 3.527 2.874 6.398 6.402 6.398A6.407 6.407 0 0 0 32 25.602c0-2.883-1.918-5.325-4.54-6.125.036-1.372.056-2.918.056-4.758 0-13.446-1.262-13.446-2.012-13.446M4.477 9.602a3.194 3.194 0 0 0-3.196 3.195v3.2a3.194 3.194 0 0 0 3.196 3.194h6.402v-9.59ZM28.78 12.34c.008.754.016 1.543.016 2.379q-.001 1.616-.02 3.027a2.79 2.79 0 0 0 1.91-2.656c0-1.227-.761-2.32-1.906-2.75M4.246 20.46c.723 1.974 1.402 5.536 1.899 8.13.101.523.406 2.129 2.457 2.129h2.136c1.7 0 2.059-1.047 2.059-1.922 0-1.14-.64-1.871-1.383-2.606-.176-.277-.453-1.8-.523-5.718H4.477c-.079 0-.157-.008-.23-.012m21.355.02c1.359 0 2.664.539 3.625 1.5a5.12 5.12 0 0 1 1.492 3.62 5.1 5.1 0 0 1-1.496 3.622 5.1 5.1 0 0 1-3.621 1.496 5.12 5.12 0 0 1-3.622-1.492 5.13 5.13 0 0 1-1.5-3.625 5.107 5.107 0 0 1 5.122-5.122m-2.243 2.239a.64.64 0 0 0-.445.195.61.61 0 0 0 0 .895l1.79 1.793-1.79 1.789a.63.63 0 0 0-.191.449c0 .168.07.332.191.45a.68.68 0 0 0 .445.19c.13 0 .32-.066.45-.19l1.793-1.794 1.789 1.793c.129.125.32.191.449.191s.32-.066.45-.19a.6.6 0 0 0 .19-.45.6.6 0 0 0-.19-.45l-1.794-1.788 1.793-1.793a.62.62 0 0 0 0-.895.63.63 0 0 0-.45-.191.63.63 0 0 0-.448.191l-1.79 1.79-1.792-1.79a.65.65 0 0 0-.45-.195m0 0" fill="rgb(0%, 0%, 0%)"/></svg>
